!!!COM:	Bach, Johann Sebastian
!!!CDT:	1685/02/21/-1750/07/28/
!!!OTL@@DE:	Nun lob, mein Seel, den Herren
!!!SCT:	BWV 17/7
!!!PC#:	7
!!!AGN:	chorale
**harm	**kern	**kern	**kern	**kern
*	*ICvox	*ICvox	*ICvox	*ICvox
*	*Ibass	*Itenor	*Ialto	*Isoprn
*	*I"Bass	*I"Tenor	*I"Alto	*I"Soprano
*>[A,A,B]	*>[A,A,B]	*>[A,A,B]	*>[A,A,B]	*>[A,A,B]
*>norep[A,B]	*>norep[A,B]	*>norep[A,B]	*>norep[A,B]	*>norep[A,B]
*>A	*>A	*>A	*>A	*>A
*	*	*oclefC4	*oclefC3	*oclefC1
*	*clefF4	*clefGv2	*clefG2	*clefG2
*k[f#c#g#]	*k[f#c#g#]	*k[f#c#g#]	*k[f#c#g#]	*k[f#c#g#]
*A:	*A:	*A:	*A:	*A:
*M3/4	*M3/4	*M3/4	*M3/4	*M3/4
*MM100	*MM100	*MM100	*MM100	*MM100
I	4A	4c#	4e	4a
=1	=1	=1	=1	=1
vi	2F#	2c#	2f#	2a
iii	4C#	4c#	4e	4g#
=2	=2	=2	=2	=2
IV	2D	2A	2d	2f#
V2	4D	4G#	4B	4e
=3	=3	=3	=3	=3
I6	4C#	4A	4e	4a
ii65	4D	4A	4f#	4b
V	4E	4G#	4e	4b
=4	=4	=4	=4	=4
I;	2AA;	2A;	2e;	2cc#;
I	4A	4c#	4e	4cc#
=5	=5	=5	=5	=5
V6/vi	2E#	2c#	2g#	2cc#
V7/vi	4C#	4B	4e#	4cc#
=6	=6	=6	=6	=6
vi	2F#	2A	2f#	2cc#
V2	4D	4e	4g#	4b
=7	=7	=7	=7	=7
I6	4C#	4e	4a	4a
ii65	4D	4f#	4a	4b
V	4E	4e	4g#	4b
=8	=8	=8	=8	=8
I	2AA;	2c#;	2e;	2a;
=:|!	=:|!	=:|!	=:|!	=:|!
*>B	*>B	*>B	*>B	*>B
I	4AA	4c#	4e	4a
=9	=9	=9	=9	=9
IV	2D	2d	2f#	2a
I	4A	4e	4a	4cc#
=10	=10	=10	=10	=10
f#:viio6	2G#	2e#	2b	2b
V6	4E#	4g#	4g#	4cc#
=11	=11	=11	=11	=11
i	4F#	4c#	4f#	4a
ii%65	4BB	4d	4f#	4g#
V	4C#	4c#	4e#	4g#
=12	=12	=12	=12	=12
i;	2FF#;	2A;	2c#;	2f#;
E:V65	4D#	4A	4f#	4b
=13	=13	=13	=13	=13
I	4E	4G#	4e	4b
IV64	4E	4A	4e	4a
V2/IV	4Dn	4B	4e	4g#
=14	=14	=14	=14	=14
IV6	4C#	4c#	4e	4a
ii65	4AA	4c#	4e	4f#
V7	4BB	4A	4d#	4f#
=15	=15	=15	=15	=15
I;	2E;	2G#;	2B;	2e;
vi	4C#	4G#	4c#	4e
=16	=16	=16	=16	=16
ii	2F#	2A	2c#	2a
A:IV6	4F#	4d	4f#	4a
=17	=17	=17	=17	=17
V6	2G#	2B	2e	2b
V	4E	4e	4g#	4b
=18	=18	=18	=18	=18
I	2A	2e	2a	2cc#
D:V7	4AA	4e	4g	4cc#
=19	=19	=19	=19	=19
I;	2D;	2d;	2f#;	2a;
V6	4C#	4e	4a	4a
=20	=20	=20	=20	=20
vi	2BB	2f#	2b	2dd
IV	4G	4B	4b	4dd
=21	=21	=21	=21	=21
b:iio6	8EL	8eL	8gL	8cc#L
V7	8F#J	8eJ	8a#J	8cc#J
VI	4G	4d	4b	4b
V7	4F#	4A#	4e	4cc#
=22	=22	=22	=22	=22
I;	2BB;	2B;	2d#;	2b;
A:V	4E	4G#	4e	4b
=23	=23	=23	=23	=23
I	2A	2A	2e	2cc#
vi	4F#	4A	4f#	4cc#
=24	=24	=24	=24	=24
ii	2B	2B	2f#	2dd
D:IV	4G	4B	4g	4dd
=25	=25	=25	=25	=25
vii%7	2C#	2B	2g	2ee
viio	4c#	4G	4e	4ee
=26	=26	=26	=26	=26
I;	2D;	2F#;	2d;	2a;
V	4A	4A	4e	4cc#
=27	=27	=27	=27	=27
E:V6	4D#	4F#	4f#	4b
V65	4D#	4F#	4f#	4a
I	4E	4B	4e	4g#
=28	=28	=28	=28	=28
IV	4AA	4c#	4e	4a
V7	2BB	2A	2d#	2f#
=29	=29	=29	=29	=29
I;	2E;	2G#;	2B;	2e;
vi	4C#	4G#	4c#	4e
=30	=30	=30	=30	=30
ii	4F#	4A	4c#	4a
viio6	4F#	4A	4d#	4a
I	4E	4B	4e	4g#
=31	=31	=31	=31	=31
V7	2BB	2A	2d#	2f#
A:iii	4C#	4G#	4e	4e
=32	=32	=32	=32	=32
ii6	4DnX	4dnX	4f#	4b
IV7	4D	4A	4f#	4cc#
vii%7/V	4D#	4A	4a	4cc#
=33	=33	=33	=33	=33
V;	2E;	2G#;	2e;	2b;
V6/vi	4E#	4c#	4g#	4cc#
=34	=34	=34	=34	=34
IV6	4F#	4f#	4a	4dd
V65	4G#	4enX	4b	4dd
I	4A	4e	4a	4cc#
=35	=35	=35	=35	=35
V7	4E	4d	4g#	4b
vi	4F#	4c#	4a	4a
IV	4D	4f#	4a	4aa
=36	=36	=36	=36	=36
V(64)	4E	4e	4a	4cc#
V7	2E	2d	2g#	2b
=37	=37	=37	=37	=37
I;	2AA;	2c#;	2e;	2a;
==	==	==	==	==
*-	*-	*-	*-	*-
!!!YOR1: 371 vierstimmige Choralges&auml;nge von Johann Sebastian Bach, 
!!!YOR2: 4th ed. by Alfred D&ouml;rffel (Leipzig: Breitkopf und H&auml;rtel, 
!!!YOR2: c.1875). 178 pp. Plate "V.A.10".  reprint: J.S. Bach, 371 Four-Part 
!!!YOR4: Chorales (New York: Associated Music Publishers, Inc., c.1940).
!!!SMS: B&H, 4th ed, Alfred D&ouml;rffel, c.1875, plate V.A.10
!!!EED:  Craig Stuart Sapp
!!!EEV:  2009/05/22
